X: 176
T: No_36_Cow_Creek_Hunting_Dance_Song_(c).krn
N: Derived from No_36_Cow_Creek_Hunting_Dance_Song_(c).krn
%%abc-version 2.0
%%abcx-abcm2ps-target-version 5.9.1 (29 Sep 2008)
%%abc-creator hum2abc beta
%%abcx-conversion-date 2019/03/15 08:38:45
%%humdrum-veritas 1278009876
%%humdrum-veritas-data 586267717
%%linebreak <none>
%%barnumbers 0
L: 1/8
M: 2/4
K: F clef=bass
[K:clef=bass][M:2/4]C3/C/ D3/C/ | 
C2-C3/A,//C// | 
C7/A,/ | 
G,2F,2- | 
F,4 | 
F,2C3/C/ ||  
[M:3/4]C2G,2B,3/G,/ ||  
[M:2/4]G,3F, | 
F,4 | 
C,2C,3/C,/ | 
B,G, G,3/F,/ ||  
[M:3/4]F,4F,3/D,/ ||  
[M:2/4]D,2D,2 ||  
[M:3/4]C,2C,2C,C,/C,/ | 
C,4C,2 |]  



